X:1
T:Title
%%score { ( 1 3 ) | ( 2 4 ) }
L:1/8
M:6/8
K:Eb
V:1 treble nm="Grand Piano"
V:3 treble 
V:2 bass 
V:4 bass 
V:1
 z3 z2[Q:1/4=90] E | G>GG GFE | [GB][GB][Ac] [GB]3 | G>GG GFE |[M:5/8] [EG]3 [DF]2 |[M:1/8] E | %6
[M:3/4] G>G GG FE | [GB][GB] [Ac] [GB]3 | d>d de dc | B4 z2 | B4 z2 | A6 | A4 z2 | G6 | %14
 [GB]>[GB] [GB]B cd | [Ge]3 [GB]3 | B4 z2 |[M:5/8] E-E- E3 |] %18
V:2
 z3 z2 [E,G,] | [E,B,E]>[E,B,E][E,B,E] [E,B,E][E,A,E][E,G,] | [E,E][E,E][E,E] [E,E]3 | %3
 [E,B,E]>[E,B,E][E,B,E] [E,B,E][E,A,E][E,G,] |[M:5/8] [B,,B,]3 [B,,B,]2 |[M:1/8] [E,G,] | %6
[M:3/4] [E,B,E]>[E,B,E] [E,B,E][E,B,E] [E,A,E][E,G,] | [E,E][E,E] [E,E] [E,E]3 | %8
 [F,B,F]>[F,B,F] [F,B,F][F,=A,G] [F,B,F][F,A,E] | E,F, G, [B,,A,]3 | %10
 [E,G,E]>[E,G,] [E,G,][E,G,] z2 | [B,,F,]>[B,,F,] [B,,F,] [B,,F,]3 | %12
 [B,,B,]>[B,,B,] [B,,B,][B,,B,] z2 | [E,B,E]>[E,B,] [E,B,] [E,B,]3 | %14
 [E,E]>[E,E] [E,E][K:treble][A,DA] [A,EA][B,A] | [E,B,]3 [E,B,]3 | %16
 [B,,B,]>[B,,B,] [B,,B,][B,,F,] [B,,F,][B,,A,] |[M:5/8] [G,B,]>G,A, G,2 |] %18
V:3
 x6 | x6 | x6 | x6 |[M:5/8] x5 |[M:1/8] x |[M:3/4] x6 | x6 | x6 | DD E [FB]3 | z z/ E/ EE cG | %11
 D>D D D3 | F>F FF BF | z z/ E/ E E3 | x6 | x6 | D>D DD [DA][DF] |[M:5/8] z z/ B,/C B,2 |] %18
V:4
 x6 | x6 | x6 | x6 |[M:5/8] x5 |[M:1/8] x |[M:3/4] x6 | x6 | x6 | B,,4 z2 | x6 | x6 | x6 | x6 | %14
 x3[K:treble] x3 | x6 | x6 |[M:5/8] E,-E,- E,3 |] %18

